X:17708
T:Traditional (North Highland)
M:6/8
L:1/8
R:Jig
K:D
Bcd dAd | dAd f2 d | c2 e ede | BBB c2 A | dAd dAd | ddd fed |B2  B c/2d
/2ec | d3 A3 :|:
d2 d fga | BcB c2 B | ABA ABA | BcB c2 A | d2 d fga | BcB c2 A Bcd edc |
 d3 A3 :|:
agf gfe | fed c2 A | dBG Bcd | BeB c2 A | afa geg | fed c2 A | dfd edc |
 d3 A3 :||
